assets/images/kids/carrot.svg

<svg width="391" height="411" viewBox="0 0 391 411" fill="none" xmlns="http://www.w3.org/2000/svg">
<path d="M194.924 126.876C180.848 121.903 165.867 120.834 150.967 125.149C117.424 134.931 78.7765 197.033 49.719 260.163C18.1509 328.8 -2.18112 398.629 7.61446 404.136C41.1993 422.919 264.687 302.701 264.892 220.625C264.934 211.295 262.999 201.595 259.501 192.142" stroke="#3F2A25" stroke-width="2" stroke-linecap="round" stroke-linejoin="round"/>
<path d="M194.924 126.876C194.924 99.4619 211.799 63.7049 219.413 63.7049C232.295 63.7049 219.742 92.8448 235.506 93.9956C255.714 95.4341 363.136 -4.68549 379.764 6.82251C403.677 23.3447 304.857 115.573 307.162 129.794C309.22 142.617 333.791 127.944 336.548 145.412C338.112 155.399 303.005 183.511 259.46 192.225" stroke="#3F2A25" stroke-width="2" stroke-linecap="round" stroke-linejoin="round"/>
<path d="M49.719 260.163C49.3897 260.04 48.9781 259.999 48.6489 259.875" stroke="#3F2A25" stroke-width="2" stroke-linecap="round" stroke-linejoin="round"/>
<path d="M380.422 6.57593C404.294 23.0981 305.515 115.327 307.82 129.547C309.878 142.37 334.49 127.698 337.248 145.124C338.812 155.111 303.704 183.224 260.159 191.937C263.616 201.39 265.592 211.048 265.509 220.378C265.304 302.455 41.8574 422.672 8.23143 403.89C-1.56414 398.423 18.7679 328.553 50.336 259.916C79.4346 196.787 118.082 134.726 151.626 124.903C166.525 120.628 181.506 121.697 195.582 126.67C195.582 99.2564 212.457 63.4583 220.071 63.4583C232.912 63.4583 220.4 92.6393 236.164 93.749C256.372 95.1875 363.794 -4.93207 380.422 6.57593Z" fill="#BC7171"/>
<path d="M192.249 319.347C125.285 371.79 32.7207 413.754 9.01376 404.629L9.1784 404.218C36.3838 397.642 112.197 369.407 169.818 305.866C172.081 303.4 174.304 300.893 176.568 298.345C181.63 304.058 186.528 310.716 192.249 319.347Z" fill="#C47B49"/>
<path d="M236.205 154.7C233.818 154.002 231.472 151.494 229.826 148.289C232.048 150.344 234.189 152.481 236.205 154.7Z" fill="#6A964D"/>
<path d="M9.17842 404.218L9.01378 404.629C8.47873 404.424 7.94366 404.177 7.49093 403.931C0.658718 400.108 8.3964 365.173 24.4068 321.155C31.3625 301.879 39.9645 280.836 49.5955 259.957C66.6348 222.926 86.9668 186.306 107.628 160.331C122.198 142 136.974 128.972 150.844 124.944C165.702 120.628 180.766 121.738 194.801 126.67C207.559 131.109 219.536 138.754 229.826 148.289C231.472 151.495 233.818 154.002 236.205 154.7C237.605 156.221 238.922 157.742 240.239 159.304C240.28 159.345 240.28 159.386 240.321 159.427C259.171 194.115 218.919 250.545 176.568 298.345C174.304 300.893 172.081 303.4 169.818 305.866C112.197 369.407 36.3838 397.642 9.17842 404.218Z" fill="#E09F57"/>
<path d="M246.989 160.167C243.902 161.153 241.103 157.783 240.239 153.837C243.326 152.07 247.606 148.165 252.051 143.274C260.2 142.74 266.127 143.932 266.909 146.439C267.856 149.645 258.678 155.235 246.989 160.167Z" fill="#6A964D"/>
<path d="M240.239 153.837C241.103 157.783 243.902 161.153 246.989 160.167C258.678 155.235 267.856 149.645 266.909 146.439C266.127 143.932 260.2 142.74 252.051 143.274C264.152 129.835 277.693 108.874 272.877 103.654C267.238 97.5302 234.806 124.245 229.291 131.109C225.792 135.424 226.904 142.905 229.826 148.289C219.536 138.753 207.559 131.109 194.801 126.67C194.801 99.2564 211.716 63.4994 219.289 63.4994C226.863 63.4994 225.546 74.3909 226.657 83.1041C227.233 90.9131 221.471 101.805 225.834 103.942C230.731 106.367 237.44 95.6396 245.548 90.5432C279.092 73.6922 364.906 -3.61693 379.641 6.57587C380.958 7.48007 381.945 8.63088 382.522 9.98718L381.534 10.3982C381.534 32.0168 282.467 119.806 291.316 135.137C297.325 145.494 309.055 140.315 309.466 150.056C310.043 162.879 281.067 176.36 257.031 184.416L256.373 184.744C252.298 175.826 246.824 167.236 240.321 159.427C240.28 159.386 240.28 159.345 240.239 159.303C238.922 157.742 237.605 156.221 236.205 154.7C236.452 154.782 236.658 154.824 236.905 154.865C237.728 154.988 238.881 154.618 240.239 153.837Z" fill="#77B566"/>
<path d="M236.205 154.7C234.189 152.481 232.048 150.344 229.826 148.289C226.904 142.905 225.792 135.424 229.291 131.109C234.806 124.245 267.238 97.5302 272.877 103.654C277.693 108.874 264.152 129.835 252.051 143.274C250.199 143.357 248.223 143.562 246.166 143.85C240.445 144.343 239.169 149.439 240.239 153.837C238.881 154.618 237.728 154.988 236.905 154.865C236.658 154.824 236.452 154.782 236.205 154.7Z" fill="#6A964D"/>
<path d="M245.548 90.5432C237.44 95.6396 230.731 106.367 225.833 103.942C221.471 101.805 227.233 90.9131 226.657 83.1041C227.398 88.6526 229.25 93.338 235.382 93.749C237.687 93.9134 241.185 92.7626 245.548 90.5432Z" fill="#6A964D"/>
<path d="M176.568 298.345C218.919 250.546 259.171 194.115 240.321 159.427C246.824 167.236 252.298 175.826 256.373 184.744C257.484 187.128 258.513 189.553 259.377 191.978C262.876 201.431 264.81 211.048 264.769 220.378C264.687 251.121 233.283 287.207 192.249 319.347C186.528 310.716 181.63 304.058 176.568 298.345Z" fill="#C47B49"/>
<path d="M246.166 143.85C248.223 143.562 250.199 143.357 252.051 143.274C247.606 148.165 243.326 152.07 240.239 153.837C239.169 149.439 240.445 144.343 246.166 143.85Z" fill="#6A964D"/>
<path d="M257.031 184.416C281.067 176.36 310.043 162.879 309.466 150.056C309.055 140.315 297.325 145.494 291.316 135.137C282.467 119.806 381.534 32.0168 381.534 10.3982L382.522 9.98718C392.852 33.1265 304.898 116.107 307.038 129.547C309.137 142.37 333.708 127.698 336.466 145.165C338.03 155.152 302.922 183.224 259.377 191.978C258.513 189.553 257.484 187.128 256.373 184.744L257.031 184.416Z" fill="#6A964D"/>
<path d="M6.95555 404.136C40.5404 422.919 264.028 302.66 264.275 220.625C264.398 169.496 206.283 108.874 150.308 125.19C80.3812 145.576 -11.8948 393.615 6.95555 404.136Z" stroke="#3F2A25" stroke-linecap="round" stroke-linejoin="round"/>
<path d="M194.306 126.876C194.306 99.4619 211.181 63.7049 218.795 63.7049C231.678 63.7049 219.125 92.8448 234.888 93.9956C255.097 95.4341 362.519 -4.68549 379.146 6.82251C403.059 23.3447 304.239 115.573 306.544 129.794C308.602 142.617 333.173 127.944 335.931 145.412C337.495 155.399 302.387 183.511 258.842 192.225" stroke="#3F2A25" stroke-linecap="round" stroke-linejoin="round"/>
<path d="M107.134 160.536C141.254 175.949 168.212 193.54 180.971 222.433" stroke="#3F2A25" stroke-linecap="round" stroke-linejoin="round"/>
<path d="M48.0311 259.875C79.8461 267.561 94.9511 278.288 122.156 300.112" stroke="#3F2A25" stroke-linecap="round" stroke-linejoin="round"/>
<path d="M23.8714 321.361C48.0311 321.361 66.7168 330.937 85.0732 347.583" stroke="#3F2A25" stroke-linecap="round" stroke-linejoin="round"/>
<path d="M191.713 319.552C176.691 296.824 167.471 287.905 145.411 273.808" stroke="#3F2A25" stroke-linecap="round" stroke-linejoin="round"/>
</svg>

<svg xmlns="http://www.w3.org/2000/svg" width="391" height="411" fill="none" xmlns:v="https://vecta.io/nano"><g stroke="#3f2a25" stroke-width="2" stroke-linecap="round" stroke-linejoin="round"><path d="M194.924 126.876c-14.076-4.973-29.057-6.042-43.957-1.727-33.543 9.782-72.191 71.884-101.248 135.014C18.151 328.8-2.181 398.629 7.614 404.136c33.585 18.783 257.073-101.435 257.278-183.511.042-9.33-1.893-19.03-5.391-28.483"/><path d="M194.924 126.876c0-27.414 16.875-63.171 24.489-63.171 12.882 0 .329 29.14 16.093 30.291 20.208 1.439 127.63-98.681 144.258-87.173 23.913 16.522-74.907 108.75-72.602 122.971 2.058 12.823 26.629-1.85 29.386 15.618 1.564 9.987-33.543 38.099-77.088 46.813M49.719 260.163c-.329-.123-.741-.164-1.07-.288"/></g><path d="M380.422 6.576c23.872 16.522-74.907 108.751-72.602 122.971 2.058 12.823 26.67-1.849 29.428 15.577 1.564 9.987-33.544 38.1-77.089 46.813 3.457 9.453 5.433 19.111 5.35 28.441-.205 82.077-223.652 202.294-257.278 183.512-9.796-5.467 10.536-75.337 42.105-143.974 29.099-63.129 67.746-125.19 101.29-135.013 14.899-4.275 29.88-3.206 43.956 1.767 0-27.414 16.875-63.212 24.489-63.212 12.841 0 .329 29.181 16.093 30.291 20.208 1.439 127.63-98.681 144.258-87.173z" fill="#bc7171"/><path d="M192.249 319.347C125.285 371.79 32.721 413.754 9.014 404.629l.165-.411c27.205-6.576 103.019-34.811 160.64-98.352l6.75-7.521c5.062 5.713 9.96 12.371 15.681 21.002z" fill="#c47b49"/><path d="M236.205 154.7c-2.387-.698-4.733-3.206-6.379-6.411l6.379 6.411z" fill="#6a964d"/><path d="M9.178 404.218l-.165.411c-.535-.205-1.07-.452-1.523-.698-6.832-3.823.905-38.758 16.916-82.776 6.956-19.276 15.558-40.319 25.189-61.198 17.039-37.031 37.371-73.651 58.033-99.626 14.57-18.331 29.346-31.359 43.216-35.387 14.858-4.316 29.922-3.206 43.957 1.726 12.758 4.439 24.735 12.084 35.025 21.619 1.646 3.206 3.992 5.713 6.379 6.411 1.4 1.521 2.717 3.042 4.034 4.604.041.041.041.082.082.123 18.85 34.688-21.402 91.118-63.753 138.918l-6.75 7.521c-57.621 63.541-133.434 91.776-160.64 98.352z" fill="#e09f57"/><path d="M246.989 160.167c-3.087.986-5.886-2.384-6.75-6.33 3.087-1.767 7.367-5.672 11.812-10.563 8.149-.534 14.076.658 14.858 3.165.947 3.206-8.231 8.796-19.92 13.728z" fill="#6a964d"/><path d="M240.239 153.837c.864 3.946 3.663 7.316 6.75 6.33 11.689-4.932 20.867-10.522 19.92-13.728-.782-2.507-6.709-3.699-14.858-3.165 12.101-13.439 25.642-34.4 20.826-39.62-5.639-6.124-38.071 20.591-43.586 27.455-3.499 4.315-2.387 11.796.535 17.18-10.29-9.536-22.267-17.18-35.025-21.619 0-27.414 16.915-63.171 24.488-63.171s6.257 10.892 7.368 19.605c.576 7.809-5.186 18.701-.823 20.838 4.897 2.425 11.606-8.302 19.714-13.399 33.544-16.851 119.358-94.16 134.093-83.967 1.317.904 2.304 2.055 2.881 3.411l-.988.411c0 21.619-99.067 109.408-90.218 124.739 6.009 10.357 17.739 5.178 18.15 14.919.577 12.823-28.399 26.304-52.435 34.36l-.658.328c-4.075-8.918-9.549-17.508-16.052-25.317-.041-.041-.041-.082-.082-.124-1.317-1.561-2.634-3.082-4.034-4.603.247.082.453.124.7.165.823.123 1.976-.247 3.334-1.028z" fill="#77b566"/><path d="M236.205 154.7l-6.379-6.411c-2.922-5.384-4.034-12.865-.535-17.18 5.515-6.864 37.947-33.579 43.586-27.455 4.816 5.22-8.725 26.181-20.826 39.62-1.852.083-3.828.288-5.885.576-5.721.493-6.997 5.589-5.927 9.987-1.358.781-2.511 1.151-3.334 1.028-.247-.041-.453-.083-.7-.165zm9.343-64.157c-8.108 5.096-14.817 15.824-19.715 13.399-4.362-2.137 1.4-13.029.824-20.838.741 5.549 2.593 10.234 8.725 10.645 2.305.164 5.803-.986 10.166-3.206z" fill="#6a964d"/><path d="M176.568 298.345c42.351-47.799 82.603-104.23 63.753-138.918 6.503 7.809 11.977 16.399 16.052 25.317 1.111 2.384 2.14 4.809 3.004 7.234 3.499 9.453 5.433 19.07 5.392 28.4-.082 30.743-31.486 66.829-72.52 98.969-5.721-8.631-10.619-15.289-15.681-21.002z" fill="#c47b49"/><path d="M246.166 143.85l5.885-.576c-4.445 4.891-8.725 8.796-11.812 10.563-1.07-4.398.206-9.494 5.927-9.987zm10.865 40.566c24.036-8.056 53.012-21.537 52.435-34.36-.411-9.741-12.141-4.562-18.15-14.919-8.849-15.331 90.218-103.12 90.218-124.739l.988-.411c10.33 23.139-77.624 106.12-75.484 119.56 2.099 12.823 26.67-1.849 29.428 15.618 1.564 9.987-33.544 38.059-77.089 46.813-.864-2.425-1.893-4.85-3.004-7.234l.658-.328z" fill="#6a964d"/><g stroke="#3f2a25" stroke-linejoin="round"><path d="M6.956 404.136C40.54 422.919 264.028 302.66 264.275 220.625c.123-51.129-57.992-111.751-113.967-95.435C80.381 145.576-11.895 393.615 6.956 404.136z"/><path d="M194.306 126.876c0-27.414 16.875-63.171 24.489-63.171 12.883 0 .33 29.14 16.093 30.291 20.209 1.439 127.631-98.681 144.258-87.173 23.913 16.522-74.907 108.75-72.602 122.971 2.058 12.823 26.629-1.85 29.387 15.618 1.564 9.987-33.544 38.099-77.089 46.813m-151.708-31.689c34.12 15.413 61.078 33.004 73.837 61.897m-132.94 37.442c31.815 7.686 46.92 18.413 74.125 40.237m-98.285 21.249c24.16 0 42.845 9.576 61.202 26.222m106.64-28.031c-15.022-22.728-24.242-31.647-46.302-45.744" stroke-linecap="round"/></g></svg>
